icon/ii/share-boxed.svg

<svg xmlns="http://www.w3.org/2000/svg" viewBox="0 0 8 8" height="1em" width="1em">
  <path d="M.75 0c-.41 0-.75.34-.75.75v5.5c0 .41.34.75.75.75h4.5c.41 0 .75-.34.75-.75v-1.25h-1v1h-4v-5h2v-1h-2.25zm5.25 0v1c-2.05 0-3.7 1.54-3.94 3.53.21-.88.99-1.53 1.94-1.53h2v1l2-2-2-2z"/>
</svg>

<svg xmlns="http://www.w3.org/2000/svg" width="8" height="8"><path d="M.75 0C.34 0 0 .34 0 .75v5.5c0 .41.34.75.75.75h4.5c.41 0 .75-.34.75-.75V5H5v1H1V1h2V0H.75zM6 0v1C3.95 1 2.3 2.54 2.06 4.53 2.27 3.65 3.05 3 4 3h2v1l2-2-2-2z"/></svg>
